flaticon/design/shapes-1.svg

<svg xmlns="http://www.w3.org/2000/svg" width="32" height="32" viewBox="0 0 24 24">
    <path d="M 15.015625 20.933594 C 15.074219 21.09375 15.226562 21.199219 15.394531 21.199219 L 19.953125 21.199219 C 20.125 21.199219 20.28125 21.085938 20.332031 20.921875 L 21.582031 16.964844 C 21.628906 16.8125 21.585938 16.652344 21.46875 16.546875 L 17.867188 13.304688 C 17.714844 13.164062 17.488281 13.164062 17.332031 13.300781 L 13.734375 16.511719 C 13.613281 16.621094 13.570312 16.789062 13.621094 16.945312 Z M 17.597656 14.136719 L 20.742188 16.96875 L 19.660156 20.398438 L 15.679688 20.398438 L 14.464844 16.933594 Z M 17.597656 14.136719"/>
    <path d="M 23.601562 0 L 0.398438 0 C 0.179688 0 0 0.179688 0 0.398438 L 0 23.601562 C 0 23.820312 0.179688 24 0.398438 24 L 23.601562 24 C 23.820312 24 24 23.820312 24 23.601562 L 24 0.398438 C 24 0.179688 23.820312 0 23.601562 0 Z M 23.199219 23.199219 L 0.800781 23.199219 L 0.800781 0.800781 L 23.199219 0.800781 Z M 23.199219 23.199219"/>
    <path d="M2.800781 10.398438L10 10.398438C10.222656 10.398438 10.398438 10.222656 10.398438 10L10.398438 2.800781C10.398438 2.578125 10.222656 2.398438 10 2.398438L2.800781 2.398438C2.578125 2.398438 2.398438 2.578125 2.398438 2.800781L2.398438 10C2.398438 10.222656 2.578125 10.398438 2.800781 10.398438zM3.199219 3.199219L9.601562 3.199219 9.601562 9.601562 3.199219 9.601562zM14 10.398438L21.199219 10.398438C21.339844 10.398438 21.46875 10.328125 21.539062 10.210938 21.613281 10.09375 21.621094 9.945312 21.558594 9.820312L17.957031 2.621094C17.820312 2.351562 17.378906 2.351562 17.242188 2.621094L13.640625 9.820312C13.582031 9.945312 13.585938 10.09375 13.660156 10.210938 13.734375 10.328125 13.859375 10.398438 14 10.398438zM17.601562 3.695312L20.554688 9.601562 14.648438 9.601562zM6.398438 21.601562C8.605469 21.601562 10.398438 19.804688 10.398438 17.601562 10.398438 15.394531 8.605469 13.601562 6.398438 13.601562 4.195312 13.601562 2.398438 15.394531 2.398438 17.601562 2.398438 19.804688 4.195312 21.601562 6.398438 21.601562zM6.398438 14.398438C8.164062 14.398438 9.601562 15.835938 9.601562 17.601562 9.601562 19.363281 8.164062 20.800781 6.398438 20.800781 4.636719 20.800781 3.199219 19.363281 3.199219 17.601562 3.199219 15.835938 4.636719 14.398438 6.398438 14.398438zM6.398438 14.398438"/>
</svg>

<svg xmlns="http://www.w3.org/2000/svg" width="32" height="32" viewBox="0 0 24 24">
    <path d="M15.016 20.934c.058.16.21.265.379.265h4.558a.399.399 0 0 0 .379-.277l1.25-3.957a.398.398 0 0 0-.113-.418l-3.602-3.242a.396.396 0 0 0-.535-.004l-3.598 3.21a.41.41 0 0 0-.113.434zm2.582-6.797l3.144 2.832-1.082 3.43h-3.98l-1.215-3.465zm0 0"/>
    <path d="M23.602 0H.398A.4.4 0 0 0 0 .398v23.204A.4.4 0 0 0 .398 24h23.204a.4.4 0 0 0 .398-.398V.398A.4.4 0 0 0 23.602 0zm-.403 23.2H.801V.8h22.398zm0 0"/>
    <path d="M2.8 10.398H10a.395.395 0 0 0 .398-.398V2.8A.398.398 0 0 0 10 2.399H2.8a.402.402 0 0 0-.402.403V10c0 .223.18.398.403.398zM3.2 3.2h6.402v6.403H3.199zm0 0M14 10.398h7.2a.398.398 0 0 0 .36-.578l-3.603-7.199c-.137-.27-.578-.27-.715 0l-3.601 7.2a.408.408 0 0 0 .02.39c.073.117.198.187.339.187zm3.602-6.703l2.953 5.907h-5.907zm0 0M6.398 21.602c2.207 0 4-1.797 4-4 0-2.207-1.793-4-4-4-2.203 0-4 1.793-4 4 0 2.203 1.797 4 4 4zm0-7.204a3.208 3.208 0 0 1 3.204 3.204c0 1.761-1.438 3.199-3.204 3.199A3.206 3.206 0 0 1 3.2 17.6a3.207 3.207 0 0 1 3.2-3.203zm0 0"/>
</svg>
